icons/action/icon_share-android_m_black.svg

<svg width="24" height="24" viewBox="0 0 24 24" xmlns="http://www.w3.org/2000/svg"><g fill="none" fill-rule="evenodd"><path d="M0 0h24v24H0z"/><path d="M0 0h24v24H0z"/><path d="M19 6c1.654 0 3-1.346 3-3s-1.346-3-3-3-3 1.346-3 3c0 .263.045.514.109.757L7.078 9.844A2.988 2.988 0 0 0 5 9c-1.654 0-3 1.346-3 3s1.346 3 3 3c.807 0 1.538-.324 2.078-.844l9.031 6.088c-.069.246-.106.5-.109.756 0 1.654 1.346 3 3 3s3-1.346 3-3-1.346-3-3-3c-1.03 0-1.939.522-2.479 1.314l-8.854-5.969A2.96 2.96 0 0 0 8 12c0-.486-.127-.939-.333-1.346l8.854-5.969A2.996 2.996 0 0 0 19 6zm0 13c1.103 0 2 .897 2 2s-.897 2-2 2-2-.897-2-2 .897-2 2-2zM5 14c-1.103 0-2-.897-2-2s.897-2 2-2 2 .897 2 2-.897 2-2 2zM19 1c1.103 0 2 .897 2 2s-.897 2-2 2-2-.897-2-2 .897-2 2-2z" fill="#0B1F35" fill-rule="nonzero"/></g></svg>

<?xml version="1.0" encoding="UTF-8"?>
<svg width="24px" height="24px" viewBox="0 0 24 24" version="1.1" xmlns="http://www.w3.org/2000/svg" xmlns:xlink="http://www.w3.org/1999/xlink">
    <!-- Generator: Sketch 48.2 (47327) - http://www.bohemiancoding.com/sketch -->
    <title>icon_share-android_m_black</title>
    <desc>Created with Sketch.</desc>
    <defs></defs>
    <g id="Page-1" stroke="none" stroke-width="1" fill="none" fill-rule="evenodd">
        <g id="icon_share-android_m_black">
            <polygon id="Shape" points="0 0 24 0 24 24 0 24"></polygon>
            <polygon id="Shape" points="0 0 24 0 24 24 0 24"></polygon>
            <path d="M19,6 C20.654,6 22,4.654 22,3 C22,1.346 20.654,0 19,0 C17.346,0 16,1.346 16,3 C16,3.263 16.045,3.514 16.109,3.757 L7.078,9.844 C6.52120441,9.30351174 5.77598208,9.00083241 5,9 C3.346,9 2,10.346 2,12 C2,13.654 3.346,15 5,15 C5.807,15 6.538,14.676 7.078,14.156 L16.109,20.244 C16.0399804,20.4901951 16.0033386,20.744335 16,21 C16,22.654 17.346,24 19,24 C20.654,24 22,22.654 22,21 C22,19.346 20.654,18 19,18 C17.97,18 17.061,18.522 16.521,19.314 L7.667,13.345 C7.88284954,12.9293271 7.99697619,12.4683651 8,12 C8,11.514 7.873,11.061 7.667,10.654 L16.521,4.685 C17.0782777,5.50714908 18.0067793,5.99967814 19,6 Z M19,19 C20.103,19 21,19.897 21,21 C21,22.103 20.103,23 19,23 C17.897,23 17,22.103 17,21 C17,19.897 17.897,19 19,19 Z M5,14 C3.897,14 3,13.103 3,12 C3,10.897 3.897,10 5,10 C6.103,10 7,10.897 7,12 C7,13.103 6.103,14 5,14 Z M19,1 C20.103,1 21,1.897 21,3 C21,4.103 20.103,5 19,5 C17.897,5 17,4.103 17,3 C17,1.897 17.897,1 19,1 Z" id="Shape" fill="#0B1F35" fill-rule="nonzero"></path>
        </g>
    </g>
</svg>
